public/library/boost-icon-light.svg

<svg width="147" height="146" viewBox="0 0 147 146" fill="none" xmlns="http://www.w3.org/2000/svg">
<path d="M61.4617 90.7012L89.8458 60.9628H146.18V84.6973H101.497L85.425 102.247V145.68H61.4411V90.7012H61.4617ZM85.4457 55.1998L57.2682 84.7174H0.5V60.9829H44.956L61.4617 43.433V0H85.4457V55.1798V55.1998Z" fill="#222222"/>
</svg>

<svg xmlns="http://www.w3.org/2000/svg" width="147" height="146" fill="none" viewBox="0 0 147 146"><path fill="#222" d="m61.462 90.701 28.384-29.738h56.334v23.734h-44.683l-16.072 17.55v43.433H61.441V90.701zM85.446 55.2 57.268 84.717H.5V60.983h44.456l16.506-17.55V0h23.984v55.2"/></svg>
